humanity-icon-theme/Humanity/actions/32/view-restore.svg

<?xml version="1.0" encoding="UTF-8" standalone="no"?>
<!-- Created with Inkscape (http://www.inkscape.org/) -->

<svg
   xmlns:svg="http://www.w3.org/2000/svg"
   xmlns="http://www.w3.org/2000/svg"
   xmlns:xlink="http://www.w3.org/1999/xlink"
   version="1.0"
   width="32"
   height="32"
   id="svg3082">
  <defs
     id="defs3084">
    <linearGradient
       id="linearGradient5060">
      <stop
         id="stop5062"
         style="stop-color:black;stop-opacity:1"
         offset="0" />
      <stop
         id="stop5064"
         style="stop-color:black;stop-opacity:0"
         offset="1" />
    </linearGradient>
    <linearGradient
       id="linearGradient5048">
      <stop
         id="stop5050"
         style="stop-color:black;stop-opacity:0"
         offset="0" />
      <stop
         id="stop5056"
         style="stop-color:black;stop-opacity:1"
         offset="0.5" />
      <stop
         id="stop5052"
         style="stop-color:black;stop-opacity:0"
         offset="1" />
    </linearGradient>
    <linearGradient
       id="linearGradient6388">
      <stop
         id="stop6390"
         style="stop-color:#73a300;stop-opacity:1"
         offset="0" />
      <stop
         id="stop6392"
         style="stop-color:#428300;stop-opacity:0"
         offset="1" />
    </linearGradient>
    <linearGradient
       id="linearGradient6457">
      <stop
         id="stop6459"
         style="stop-color:white;stop-opacity:0.94117647"
         offset="0" />
      <stop
         id="stop6461"
         style="stop-color:white;stop-opacity:0.70588237"
         offset="1" />
    </linearGradient>
    <linearGradient
       id="linearGradient2781">
      <stop
         id="stop2783"
         style="stop-color:#505050;stop-opacity:1"
         offset="0" />
      <stop
         id="stop6301"
         style="stop-color:#6e6e6e;stop-opacity:1"
         offset="0.13216467" />
      <stop
         id="stop2785"
         style="stop-color:#8c8c8c;stop-opacity:1"
         offset="1" />
    </linearGradient>
    <linearGradient
       id="linearGradient3690">
      <stop
         id="stop3692"
         style="stop-color:white;stop-opacity:1"
         offset="0" />
      <stop
         id="stop3694"
         style="stop-color:white;stop-opacity:0.46875"
         offset="1" />
    </linearGradient>
    <linearGradient
       x1="302.85715"
       y1="366.64789"
       x2="302.85715"
       y2="609.50507"
       id="linearGradient6658"
       xlink:href="#linearGradient5048"
       gradientUnits="userSpaceOnUse"
       gradientTransform="matrix(2.774389,0,0,1.969706,-1892.179,-872.8854)" />
    <radialGradient
       cx="605.71429"
       cy="486.64789"
       r="117.14286"
       fx="605.71429"
       fy="486.64789"
       id="radialGradient6660"
       xlink:href="#linearGradient5060"
       gradientUnits="userSpaceOnUse"
       gradientTransform="matrix(2.774389,0,0,1.969706,-1891.633,-872.8854)" />
    <radialGradient
       cx="605.71429"
       cy="486.64789"
       r="117.14286"
       fx="605.71429"
       fy="486.64789"
       id="radialGradient6662"
       xlink:href="#linearGradient5060"
       gradientUnits="userSpaceOnUse"
       gradientTransform="matrix(-2.774389,0,0,1.969706,112.7623,-872.8854)" />
    <linearGradient
       x1="7.375"
       y1="15.000398"
       x2="14.979"
       y2="23.156176"
       id="linearGradient5540"
       xlink:href="#linearGradient6388"
       gradientUnits="userSpaceOnUse"
       gradientTransform="matrix(0,0.7144277,-0.7025428,0,22.928087,14.805642)" />
    <linearGradient
       x1="7.375"
       y1="15.000398"
       x2="14.979"
       y2="23.156176"
       id="linearGradient5543"
       xlink:href="#linearGradient6388"
       gradientUnits="userSpaceOnUse"
       gradientTransform="matrix(0,-0.7144277,-0.7025428,0,22.928087,21.194358)" />
    <linearGradient
       x1="7.375"
       y1="15.000398"
       x2="14.979"
       y2="23.156176"
       id="linearGradient5546"
       xlink:href="#linearGradient6388"
       gradientUnits="userSpaceOnUse"
       gradientTransform="matrix(0,0.7144277,0.7025428,0,9.071913,14.805642)" />
    <linearGradient
       x1="7.375"
       y1="15.000398"
       x2="14.979"
       y2="23.156176"
       id="linearGradient5549"
       xlink:href="#linearGradient6388"
       gradientUnits="userSpaceOnUse"
       gradientTransform="matrix(0,-0.7144277,0.7025428,0,9.071913,21.194358)" />
    <linearGradient
       x1="24"
       y1="13"
       x2="24"
       y2="40"
       id="linearGradient5561"
       xlink:href="#linearGradient6457"
       gradientUnits="userSpaceOnUse"
       gradientTransform="matrix(0.6842105,0,0,0.6666667,-0.4210528,0.3333337)" />
    <linearGradient
       x1="16.033964"
       y1="9.0734701"
       x2="16.075121"
       y2="15.044087"
       id="linearGradient5564"
       xlink:href="#linearGradient3690"
       gradientUnits="userSpaceOnUse"
       gradientTransform="matrix(0.8709822,0,0,0.7931189,-5.7743321,-3.0350888)" />
    <linearGradient
       x1="21.866402"
       y1="8.5763302"
       x2="21.780495"
       y2="39.923653"
       id="linearGradient5567"
       xlink:href="#linearGradient2781"
       gradientUnits="userSpaceOnUse"
       gradientTransform="matrix(0.8787984,0,0,0.8196848,-5.9697866,-3.8775339)" />
  </defs>
  <g
     id="g5573">
    <g
       transform="matrix(0.01576018,0,0,0.00912212,30.017662,27.011042)"
       id="g5022"
       style="opacity:0.58730164;display:inline">
      <rect
         width="1339.6335"
         height="478.35718"
         x="-1559.2523"
         y="-150.69685"
         id="rect4173"
         style="opacity:0.40206185;fill:url(#linearGradient6658);fill-opacity:1;fill-rule:nonzero;stroke:none;stroke-width:1;marker:none;visibility:visible;display:inline;overflow:visible" />
      <path
         d="m -219.61876,-150.68038 c 0,0 0,478.33079 0,478.33079 142.874166,0.90045 345.40022,-107.16966 345.40014,-239.196175 0,-132.026537 -159.436816,-239.134595 -345.40014,-239.134615 z"
         id="path5058"
         style="opacity:0.40206185;fill:url(#radialGradient6660);fill-opacity:1;fill-rule:nonzero;stroke:none;stroke-width:1;marker:none;visibility:visible;display:inline;overflow:visible" />
      <path
         d="m -1559.2523,-150.68038 c 0,0 0,478.33079 0,478.33079 -142.8742,0.90045 -345.4002,-107.16966 -345.4002,-239.196175 0,-132.026537 159.4368,-239.134595 345.4002,-239.134615 z"
         id="path5018"
         style="opacity:0.40206185;fill:url(#radialGradient6662);fill-opacity:1;fill-rule:nonzero;stroke:none;stroke-width:1;marker:none;visibility:visible;display:inline;overflow:visible" />
    </g>
    <rect
       width="29.000372"
       height="25.000372"
       rx="2"
       ry="2"
       x="1.5"
       y="3.4996281"
       id="rect1887"
       style="fill:url(#linearGradient5567);fill-opacity:1;stroke:#565853;stroke-width:1;stroke-miterlimit:4;stroke-opacity:1;stroke-dasharray:none" />
    <rect
       width="27.000456"
       height="23.000454"
       rx="1"
       ry="1"
       x="2.5"
       y="4.4995461"
       id="rect2779"
       style="opacity:0.2;fill:none;stroke:url(#linearGradient5564);stroke-width:1;stroke-miterlimit:4;stroke-opacity:1;stroke-dasharray:none" />
    <rect
       width="26"
       height="18"
       rx="0.5"
       ry="0.5"
       x="3"
       y="9"
       id="rect6287"
       style="fill:url(#linearGradient5561);fill-opacity:1;stroke:none" />
    <path
       d="M 28,6.9999998 C 28.00024,7.5522144 27.552454,8 27,8 26.447547,8 25.999761,7.5522144 26,6.9999998 25.999761,6.4477854 26.447547,6 27,6 c 0.552454,0 1.00024,0.4477854 1,0.9999998 l 0,0 z"
       id="path6289"
       style="fill:#ffc24c;fill-opacity:1;stroke:none" />
    <path
       d="m 25,7 c 2.4e-4,0.5522144 -0.447546,1 -1,1 -0.552454,0 -1.00024,-0.4477856 -1,-1 -2.4e-4,-0.5522145 0.447546,-1 1,-1 0.552454,0 1.00024,0.4477855 1,1 l 0,0 z"
       id="path6291"
       style="fill:#ffc24c;fill-opacity:1;stroke:none" />
    <path
       d="M 22,7 C 22.000241,7.5522144 21.552454,8 21.000001,8 20.447547,8 19.999761,7.5522144 20,7 19.999761,6.4477855 20.447547,6 21.000001,6 21.552454,6 22.000241,6.4477855 22,7 l 0,0 z"
       id="path6293"
       style="fill:#ffc24c;fill-opacity:1;stroke:none" />
    <path
       d="m 19.901336,11.856024 1.405809,1.422617 2.129725,-2.129724 1.414213,1.414213 -2.146532,2.146533 1.40581,1.422617 L 19,17 19.901336,11.856024 z"
       id="path6366"
       style="fill:url(#linearGradient5549);fill-opacity:1;stroke:none" />
    <path
       d="m 19.901336,24.143976 1.405809,-1.422617 2.129725,2.129724 1.414213,-1.414213 -2.146532,-2.146533 1.40581,-1.422617 L 19,19 l 0.901336,5.143976 z"
       id="path6332"
       style="fill:url(#linearGradient5546);fill-opacity:1;stroke:none" />
    <path
       d="M 12.098664,11.856024 10.692855,13.278641 8.56313,11.148917 7.148917,12.56313 9.295449,14.709663 7.889639,16.13228 13,17 12.098664,11.856024 z"
       id="path6336"
       style="fill:url(#linearGradient5543);fill-opacity:1;stroke:none" />
    <path
       d="M 12.098664,24.143976 10.692855,22.721359 8.56313,24.851083 7.148917,23.43687 9.295449,21.290337 7.889639,19.86772 13,19 12.098664,24.143976 z"
       id="path6340"
       style="fill:url(#linearGradient5540);fill-opacity:1;stroke:none" />
  </g>
</svg>

<?xml version="1.0" encoding="UTF-8" standalone="no"?>
<!-- Created with Inkscape (http://www.inkscape.org/) -->
<svg id="svg3082" xmlns="http://www.w3.org/2000/svg" height="32" width="32" version="1.0" xmlns:xlink="http://www.w3.org/1999/xlink">
 <defs id="defs3084">
  <linearGradient id="linearGradient5060">
   <stop id="stop5062" offset="0"/>
   <stop id="stop5064" style="stop-opacity:0" offset="1"/>
  </linearGradient>
  <linearGradient id="linearGradient6388">
   <stop id="stop6390" style="stop-color:#73a300" offset="0"/>
   <stop id="stop6392" style="stop-color:#428300;stop-opacity:0" offset="1"/>
  </linearGradient>
  <linearGradient id="linearGradient6658" y2="609.51" gradientUnits="userSpaceOnUse" x2="302.86" gradientTransform="matrix(2.7744 0 0 1.9697 -1892.2 -872.89)" y1="366.65" x1="302.86">
   <stop id="stop5050" style="stop-opacity:0" offset="0"/>
   <stop id="stop5056" offset=".5"/>
   <stop id="stop5052" style="stop-opacity:0" offset="1"/>
  </linearGradient>
  <radialGradient id="radialGradient6660" xlink:href="#linearGradient5060" gradientUnits="userSpaceOnUse" cy="486.65" cx="605.71" gradientTransform="matrix(2.7744 0 0 1.9697 -1891.6 -872.89)" r="117.14"/>
  <radialGradient id="radialGradient6662" xlink:href="#linearGradient5060" gradientUnits="userSpaceOnUse" cy="486.65" cx="605.71" gradientTransform="matrix(-2.7744 0 0 1.9697 112.76 -872.89)" r="117.14"/>
  <linearGradient id="linearGradient5540" y2="23.156" xlink:href="#linearGradient6388" gradientUnits="userSpaceOnUse" x2="14.979" gradientTransform="matrix(0 .71443 -.70254 0 22.928 14.806)" y1="15" x1="7.375"/>
  <linearGradient id="linearGradient5543" y2="23.156" xlink:href="#linearGradient6388" gradientUnits="userSpaceOnUse" x2="14.979" gradientTransform="matrix(0 -.71443 -.70254 0 22.928 21.194)" y1="15" x1="7.375"/>
  <linearGradient id="linearGradient5546" y2="23.156" xlink:href="#linearGradient6388" gradientUnits="userSpaceOnUse" x2="14.979" gradientTransform="matrix(0 .71443 .70254 0 9.0719 14.806)" y1="15" x1="7.375"/>
  <linearGradient id="linearGradient5549" y2="23.156" xlink:href="#linearGradient6388" gradientUnits="userSpaceOnUse" x2="14.979" gradientTransform="matrix(0 -.71443 .70254 0 9.0719 21.194)" y1="15" x1="7.375"/>
  <linearGradient id="linearGradient5561" y2="40" gradientUnits="userSpaceOnUse" x2="24" gradientTransform="matrix(.68421 0 0 .66667 -.42105 .33333)" y1="13" x1="24">
   <stop id="stop6459" style="stop-color:#fff;stop-opacity:.94118" offset="0"/>
   <stop id="stop6461" style="stop-color:#fff;stop-opacity:.70588" offset="1"/>
  </linearGradient>
  <linearGradient id="linearGradient5564" y2="15.044" gradientUnits="userSpaceOnUse" x2="16.075" gradientTransform="matrix(.87098 0 0 .79312 -5.7743 -3.0351)" y1="9.0735" x1="16.034">
   <stop id="stop3692" style="stop-color:#fff" offset="0"/>
   <stop id="stop3694" style="stop-color:#fff;stop-opacity:.46875" offset="1"/>
  </linearGradient>
  <linearGradient id="linearGradient5567" y2="39.924" gradientUnits="userSpaceOnUse" x2="21.78" gradientTransform="matrix(.87880 0 0 .81968 -5.9698 -3.8775)" y1="8.5763" x1="21.866">
   <stop id="stop2783" style="stop-color:#505050" offset="0"/>
   <stop id="stop6301" style="stop-color:#6e6e6e" offset=".13216"/>
   <stop id="stop2785" style="stop-color:#8c8c8c" offset="1"/>
  </linearGradient>
 </defs>
 <g id="g5573">
  <g id="g5022" style="opacity:.58730" transform="matrix(.015760 0 0 .0091221 30.018 27.011)">
   <rect id="rect4173" style="opacity:.40206;fill:url(#linearGradient6658)" height="478.36" width="1339.6" y="-150.7" x="-1559.3"/>
   <path id="path5058" style="opacity:.40206;fill:url(#radialGradient6660)" d="m-219.62-150.68v478.33c142.87 0.90045 345.4-107.17 345.4-239.2s-159.44-239.13-345.4-239.13z"/>
   <path id="path5018" style="opacity:.40206;fill:url(#radialGradient6662)" d="m-1559.3-150.68v478.33c-142.87 0.90045-345.4-107.17-345.4-239.2s159.44-239.13 345.4-239.13z"/>
  </g>
  <rect id="rect1887" style="stroke:#565853;fill:url(#linearGradient5567)" rx="2" ry="2" height="25" width="29" y="3.4996" x="1.5"/>
  <rect id="rect2779" style="opacity:.2;stroke:url(#linearGradient5564);fill:none" rx="1" ry="1" height="23" width="27" y="4.4995" x="2.5"/>
  <rect id="rect6287" style="fill:url(#linearGradient5561)" rx=".5" ry=".5" height="18" width="26" y="9" x="3"/>
  <path id="path6289" style="fill:#ffc24c" d="m28 7c0 0.5522-0.448 1-1 1s-1-0.4478-1-1 0.448-1 1-1c0.55245 0 1.0002 0.44779 1 1z"/>
  <path id="path6291" style="fill:#ffc24c" d="m25 7c0.00024 0.55221-0.44755 1-1 1s-1.0002-0.44779-1-1c-0.00024-0.55221 0.44755-1 1-1s1.0002 0.44779 1 1z"/>
  <path id="path6293" style="fill:#ffc24c" d="m22 7c0 0.5522-0.448 1-1 1s-1-0.4478-1-1 0.448-1 1-1 1 0.4478 1 1z"/>
  <path id="path6366" style="fill:url(#linearGradient5549)" d="m19.901 11.856 1.4058 1.4226 2.1297-2.1297 1.4142 1.4142-2.1465 2.1465 1.4058 1.4226l-5.11 0.867 0.901-5.144z"/>
  <path id="path6332" style="fill:url(#linearGradient5546)" d="m19.901 24.144 1.4058-1.4226 2.1297 2.1297 1.4142-1.4142-2.1465-2.1465 1.4058-1.4226l-5.11-0.867 0.90134 5.144z"/>
  <path id="path6336" style="fill:url(#linearGradient5543)" d="m12.099 11.856-1.406 1.423-2.1299-2.13-1.4142 1.414 2.1465 2.147-1.4058 1.422 5.1104 0.868-0.901-5.144z"/>
  <path id="path6340" style="fill:url(#linearGradient5540)" d="m12.099 24.144-1.406-1.423-2.1299 2.13-1.4142-1.414 2.1465-2.147-1.4058-1.422 5.1104-0.868-0.901 5.144z"/>
 </g>
</svg>
